assets/img/braze_icons/certificate-01.svg

<svg fill="none" height="24" viewBox="0 0 24 24" width="24" xmlns="http://www.w3.org/2000/svg"><path clip-rule="evenodd" d="m5 1c-1.65685 0-3 1.34315-3 3v13c0 1.6569 1.34315 3 3 3h.098l3.03846 2.9143c.39272.3767 1.01454.3702 1.39932-.0145l2.47492-2.475 2.475 2.475c.3857.3857 1.0093.3912 1.4017.0123l3.0165-2.9121h.0961c1.6569 0 3-1.3431 3-3v-13c0-1.65685-1.3431-3-3-3zm10.875 16.7892c-.449.7584-1.1142 1.3736-1.9108 1.7606l1.241 1.241 1.868-1.8034zm-3.868.2107h.0074.0102c1.3694-.0132 2.4754-1.1274 2.4754-2.4999 0-1.3807-1.1193-2.5-2.5-2.5s-2.5 1.1193-2.5 2.5c0 1.3769 1.1132 2.4939 2.4887 2.5l.0173-.0001zm-3.19292 2.7931 1.23622-1.2362c-.80304-.3866-1.47363-1.0046-1.92533-1.7676l-1.19585 1.1959zm-.81408-14.793c0-.55228.44772-1 1-1h6c.5523 0 1 .44772 1 1s-.4477 1-1 1h-6c-.55228 0-1-.44772-1-1zm-1 2.5c-.55228 0-1 .44772-1 1 0 .5523.44772 1 1 1h10c.5523 0 1-.4477 1-1 0-.55228-.4477-1-1-1z" fill="#801ed7" fill-rule="evenodd"/></svg>

<svg width="24" height="24" viewBox="0 0 24 24" fill="none" xmlns="http://www.w3.org/2000/svg">
<path fill-rule="evenodd" clip-rule="evenodd" d="M5 1C3.34315 1 2 2.34315 2 4V17C2 18.6569 3.34315 20 5 20H5.098L8.13646 22.9143C8.52918 23.291 9.151 23.2845 9.53578 22.8998L12.0107 20.4248L14.4857 22.8998C14.8714 23.2855 15.495 23.291 15.8874 22.9121L18.9039 20H19C20.6569 20 22 18.6569 22 17V4C22 2.34315 20.6569 1 19 1H5ZM15.875 17.7892C15.426 18.5476 14.7608 19.1628 13.9642 19.5498L15.2052 20.7908L17.0732 18.9874L15.875 17.7892ZM12.007 17.9999L12.0144 17.9999L12.0246 17.9999C13.394 17.9867 14.5 16.8725 14.5 15.5C14.5 14.1193 13.3807 13 12 13C10.6193 13 9.5 14.1193 9.5 15.5C9.5 16.8769 10.6132 17.9939 11.9887 18L12.006 17.9999L12.007 17.9999ZM8.81408 20.793L10.0503 19.5568C9.24726 19.1702 8.57667 18.5522 8.12497 17.7892L6.92912 18.9851L8.81408 20.793ZM8 6C8 5.44772 8.44772 5 9 5H15C15.5523 5 16 5.44772 16 6C16 6.55228 15.5523 7 15 7H9C8.44772 7 8 6.55228 8 6ZM7 8.5C6.44772 8.5 6 8.94772 6 9.5C6 10.0523 6.44772 10.5 7 10.5H17C17.5523 10.5 18 10.0523 18 9.5C18 8.94772 17.5523 8.5 17 8.5H7Z" fill="#801ED7"/>
</svg>
